X:30
T:Jazz II-V-I progression
M:4/4
L:1/1
%%MIDI program 1 40 % Violin
%%MIDI program 2 41
%%MIDI program 3 42
K:Eb
%%score (S A) B
V:S lyrics=up
   c  | B-|B  |  A||   f- | f |e-  |e||
w: 8    7  7     6     44   4  3    3
w:Dmin7 G7 CMaj7 C6  Dmin7 G7 CMaj7 C6
V:A
   F- | F |E- |E ||   c  | B-|B  |  A||
V:B
   D, | G,|C,-|C,||   D, | G,|C,-|C,||
w: ii7  V7 Imaj7     ii7  V7 Imaj7
w: PD   D  T	     PD   D  T

